azure-icons/Launch-Portal.svg

<svg xmlns="http://www.w3.org/2000/svg" viewBox="0 0 18 18"><defs><linearGradient id="a" x1="8.668" y1="-2.386" x2="15.243" y2="15.46" gradientUnits="userSpaceOnUse"><stop offset="0" stop-color="#6bb9f2"/><stop offset="1" stop-color="#1b93eb"/></linearGradient></defs><path d="M17.626 6.791V.719A.218.218 0 0017.408.5h-6.072a.218.218 0 00-.155.373l1.673 1.673.111.111a.219.219 0 010 .309l-7.321 7.321a.217.217 0 000 .309l1.886 1.887a.219.219 0 00.309 0l7.321-7.321a.218.218 0 01.31 0l.111.111 1.672 1.672a.218.218 0 00.373-.154z" fill="url(#a)"/><path d="M13.167 10.919v4.444a.511.511 0 01-.511.511H2.51a.51.51 0 01-.51-.511V5.785a.51.51 0 01.51-.511h5.084a.28.28 0 00.28-.28V3.928a.28.28 0 00-.28-.28H.884a.51.51 0 00-.51.511v12.83a.51.51 0 00.51.511h13.4a.511.511 0 00.511-.511v-6.07a.28.28 0 00-.28-.28h-1.068a.28.28 0 00-.28.28z" fill="#b3b3b3"/></svg>

<svg xmlns="http://www.w3.org/2000/svg" width="18" height="18" viewBox="0 0 18 18"><defs><linearGradient id="ad2da005-b666-4084-b9ed-8672246694b5" x1="8.668" y1="-2.386" x2="15.243" y2="15.46" gradientUnits="userSpaceOnUse"><stop offset="0" stop-color="#6bb9f2" /><stop offset="1" stop-color="#1b93eb" /></linearGradient></defs><title>MsPortalFx.base.images-66</title><g id="f8d21d2a-e99e-4d54-a274-9ca49dd933bb"><g><path d="M17.626,6.791V.719A.218.218,0,0,0,17.408.5H11.336a.218.218,0,0,0-.155.373l1.673,1.673.111.111a.219.219,0,0,1,0,.309L5.644,10.287a.217.217,0,0,0,0,.309L7.53,12.483a.219.219,0,0,0,.309,0L15.16,5.162a.218.218,0,0,1,.31,0l.111.111,1.672,1.672A.218.218,0,0,0,17.626,6.791Z" fill="url(#ad2da005-b666-4084-b9ed-8672246694b5)" /><path d="M13.167,10.919v4.444a.511.511,0,0,1-.511.511H2.51A.51.51,0,0,1,2,15.363V5.785a.51.51,0,0,1,.51-.511H7.594a.28.28,0,0,0,.28-.28V3.928a.28.28,0,0,0-.28-.28H.884a.51.51,0,0,0-.51.511v12.83a.51.51,0,0,0,.51.511h13.4a.511.511,0,0,0,.511-.511v-6.07a.28.28,0,0,0-.28-.28H13.447A.28.28,0,0,0,13.167,10.919Z" fill="#b3b3b3" /></g></g></svg>
